X:1
T:Ce qui me fault
T:P.Symon
T:Source :  Livre XXV de 28 chansons nouvelles à 4 parties---Paris---P.Attaingnant-1547. Editor : André Vierendeels (29/07/18) Notes : Original clefs : G2, C2, C3, F3 Original note values have been halved Original note values have been quartered in 3-beat measures Editorial accidentals above the staff Square brackets indicate ligatures
T:Ce qui me fault
T:©
T:©
T:©
C:P.Symon
Z:©
%%score [ 1 2 [ 3 4 ] ]
L:1/8
Q:1/4=120
M:2/2
K:F
V:1 treble nm="Soprano" snm="S"
V:2 treble nm="Alto" snm="A"
V:3 treble-8 nm="Tenor 1" snm="T 1"
V:4 treble-8 nm="Tenor 2" snm="T 2"
V:1
 B4 G2 B2- | BAGF G4 | F4 z2 d2 | e2 d3 cBA | G2 A2 B4 | G2- GA BAGF | G2 A2- AG G2- | %7
w: Ce qui me|_ _ _ _ _|fault pour|mon con- * * *|* ten- te-|||
"^#" G2 F2 G2 B2 | B2 B2 A2 A2 | c4 z2 d2 | d2 d2 fedc | d2 e2- ed d2- |[M:2/4] d2 c2 | %13
w: * * ment, as-|sez le dict mon|oeil, mon|oeil qu'à vous _ _ _|_ droict _ _ vi-||
[M:3/4] d4 B2 | B2 c4 |[M:2/2] F4 z2 B2 | A2 G2 FGAB | c2 d4 c2 | d2 A2 AGFE | D2 B2 AG G2- | %20
w: se, et|ung sous-|pir, tes-|moing de grand _ _ _|_ tour- *|ment, n'at- ten- * * *|* dez _ _ _|
"^#" G2 F2 G4 | z2 d2 c2 d2 | G2 B2 A2 G2- | GFGA B2 A2- | AG G4 F2 | G2 B2 AGFE | D2 B2 AG G2- | %27
w: _ _ donc|que la lan-|gue le di- *|||se, n'at- ten- * * *|* dez _ _ _|
 G2 F2 G4 | z2 d2 c2 d2 | G2 B2 A2 G2- | GFGA B2 A2- | A2 G4 F2 | G8 |] %33
w: _ _ donc,|que la lan-|gue le di- *|||se.|
V:2
 D4 E2 DC | B,2 D4 C2 | D4 z2 F2 | G2 G2 F2 G2 | (3D2 E2 F2 _E2 D2 | C4 z2 D2 | D2 F2 E2 C2 | D8 | %8
w: Ce qui _ _|_ me _|fault pour|mon con- ten- *|* * * * te-|ment, pour|mon con- ten- te-|ment,|
 z2 D2 F2 F2 | E2 C2 D2 D2 | FEFG A2 A2 | B2 B2 G4 |[M:2/4] A4 |[M:3/4] F4 _E2 | _E2 E4 | %15
w: as- sez le|dict mon oeil, mon|oeil _ _ _ _ qu'à|vous droict vi-||se, et|ung sous-|
[M:2/2] D2 D2 F2 D2 | D2 C2 D2 A2 | A2 G2 A2 A2 | F4 z4 | F4 F2 D2 | D4 z2 G2 | F2 G2 E2 F2 | %22
w: pir, tes- moing de|grand tour- ment, tes-|moing de grand tour-|ment,|n'at- ten- dez|donc que|la lan- gue le|
 E2 D2 F2 ED | E4 (3D2 E2 F2 |"^b" E2 C2 D4 | D4 z4 | F4 F2 D2 | D4 z2 G2 | F2 G2 E2 F2 | %29
w: di- * * * *||se, le di-|se,|n'at- ten- dez|donc, que|la lan- gue le|
 E2 D2 F2 ED | E4 (3D2 E2 F2 |"^b" E2 C2 D4 | D8 |] %33
w: di- * * * *||se, le di-|se.|
V:3
 B4 c2 B2 | G8 | z2 d2 f2 d2 | c2 d2 d4 | z4 z2 d2 | e2 e2 d2- dc | B2 d2 cB BA/G/ | A4 G2- G2 | %8
w: Ce qui me|fault|pour mon con-|ten- te- ment,|pour|mon con- ten- * *|* te- * * * * *|* ment, _|
 z2 d2 d2 d2 | c2 A2 B4 | z2 d2 d4 | d2 g2- g2 d2 |[M:2/4] e4 |[M:3/4] d4 G2 | G4 A2 | %15
w: as- sez le|dict mon oeil|qu'à vous|droict vi- * *||se, et|ung sous-|
[M:2/2] B4 z4 | z4 z2 f2 | e2 d2 e2 e2 | d6 A2 | B2 d2 cBAG | A4 G4 | z4 z2 d2 | c2 d3 c BA | %23
w: pir,|tes-|moing de grand tour-|ment, n'at-|ten- dez _ _ _ _|_ donc|que|la lan _ _ _|
 G2 c2 B2 c2- | cBAG A4 | G4 z2 A2 | B2 d2 cB BA/G/ | A4 G4 | z4 z2 d2 | c2 d2- dcBA | %30
w: gue le di- *||se, n'at-|ten- dez _ _ _ _ _|_ donc,|que|la lan- * * * *|
 G2 c2 B2 c2- | cB BA/G/ A4 | G8 |] %33
w: gue le di- *||se.|
V:4
 G4 C2 G2- | GFED E4 | D8 | z2 G2 B2 G2- | G2 F2 G4 | CDEF GABA | GF FE/D/ E4 | D4 z2 G2 | %8
w: Ce qui me-||fault|pour mon con-|* ten- *||* * * * * te-|ment, as-|
 G2 G2 F2 D2 | A4 z2 G2 | d4 z2 D2 | G3 G G2 B2 |[M:2/4]"^#" A4 |[M:3/4] D4 _E2 | _E2 C4 | %15
w: sez le dict mon|oeil, mon|oeil, mon|oeil qu'à vous droict|vi-|se, et|ung sous-|
[M:2/2] B,2 B2 A2 G2 | F2 E2 DEFG | A2 B2 A4 | D4 z4 | B,4 F2 G2 | D4 G4 | z8 | z2 G2 F2 G2 | %23
w: pir, tes- moing de|grand tour- * * * *||ment,|n'at- ten- dez|donc _||que la lan-|
 CDEF G2 F2 |"^b" C2 E2 D4 | G4 z4 | B,4 F2 G2 | D4 G4 |"^#" z8 | z2 G2 F2 G2 | CDEF G2 F2 | %31
w: gue _ _ _ _ le|di- * *|se,|n'at- ten- dez|_ donc,||que la lan-|gue _ _ _ _ le|
"^b" C2 E2 D4 | G,8 |] %33
w: di- * *|se.|

